X:1
T:Sans Souci
M:2/4
L:1/8
R:Hornpipe
S:Ryan’s Mammoth Collection (1883)
Z:AK/Fiddler’s Companion
K:Bb
d/e/ | f/b/a/g/ f/d/e/=e/ | g/f/d/B/ F/G/F/E/ | D/F/B/d/ g/f/e/d/ | c/e/a/g/ f/d/e/=e/ |
f/b/a/g/ f/d/e/=e/ | g/f/d/B/ F/G/F/E/ | D/F/B/d/ f/e/c/A/ | BeB :|
|: A/B/ | c/F/A/c/ f/g/f/=e/ | d/G/B/d/ g/a/g/f/ | =e/c/e/g/ b/g/=e/d/ | d/c/=B/c/ A(A/B/) |
c/F/A/c/ f/g/f/=e/ | d/G/B/d/ g/a/g/f/ | =e/g/b/g/ e/c/B/G/ | FAF:|

